public/editor-src/editor/icons/fa/bus.svg

<svg xmlns="http://www.w3.org/2000/svg" viewBox="0 0 576 512"><!--! Font Awesome Free 6.4.0 by @fontawesome - https://fontawesome.com License - https://fontawesome.com/license/free (Icons: CC BY 4.0, Fonts: SIL OFL 1.1, Code: MIT License) Copyright 2023 Fonticons, Inc.--><path d="M288 0c134.4 0 224 35.2 224 80v48c17.7 0 32 14.3 32 32v64c0 17.7-14.3 32-32 32v160c0 17.7-14.3 32-32 32v32c0 17.7-14.3 32-32 32h-32c-17.7 0-32-14.3-32-32v-32H192v32c0 17.7-14.3 32-32 32h-32c-17.7 0-32-14.3-32-32v-32c-17.7 0-32-14.3-32-32V256c-17.7 0-32-14.3-32-32v-64c0-17.7 14.3-32 32-32V80c0-44.8 89.6-80 224-80zM128 160v96c0 17.7 14.3 32 32 32h112V128H160c-17.7 0-32 14.3-32 32zm176 128h112c17.7 0 32-14.3 32-32v-96c0-17.7-14.3-32-32-32H304v160zM144 400a32 32 0 1 0 0-64 32 32 0 1 0 0 64zm288 0a32 32 0 1 0 0-64 32 32 0 1 0 0 64zM384 80c0-8.8-7.2-16-16-16H208c-8.8 0-16 7.2-16 16s7.2 16 16 16h160c8.8 0 16-7.2 16-16z"/></svg>

<svg xmlns="http://www.w3.org/2000/svg" viewBox="0 0 576 512"><!--! Font Awesome Free 6.4.0 by @fontawesome - https://fontawesome.com License - https://fontawesome.com/license/free (Icons: CC BY 4.0, Fonts: SIL OFL 1.1, Code: MIT License) Copyright 2023 Fonticons, Inc. --><path d="M288 0C422.4 0 512 35.2 512 80V96l0 32c17.7 0 32 14.3 32 32v64c0 17.7-14.3 32-32 32l0 160c0 17.7-14.3 32-32 32v32c0 17.7-14.3 32-32 32H416c-17.7 0-32-14.3-32-32V448H192v32c0 17.7-14.3 32-32 32H128c-17.7 0-32-14.3-32-32l0-32c-17.7 0-32-14.3-32-32l0-160c-17.7 0-32-14.3-32-32V160c0-17.7 14.3-32 32-32h0V96h0V80C64 35.2 153.6 0 288 0zM128 160v96c0 17.7 14.3 32 32 32H272V128H160c-17.7 0-32 14.3-32 32zM304 288H416c17.7 0 32-14.3 32-32V160c0-17.7-14.3-32-32-32H304V288zM144 400a32 32 0 1 0 0-64 32 32 0 1 0 0 64zm288 0a32 32 0 1 0 0-64 32 32 0 1 0 0 64zM384 80c0-8.8-7.2-16-16-16H208c-8.8 0-16 7.2-16 16s7.2 16 16 16H368c8.8 0 16-7.2 16-16z"/></svg>
